Numix-GalliumOS/16/mimetypes/text-x-vcard.svg

<?xml version="1.0" encoding="UTF-8" standalone="no"?>
<svg
   xmlns:dc="http://purl.org/dc/elements/1.1/"
   xmlns:cc="http://creativecommons.org/ns#"
   xmlns:rdf="http://www.w3.org/1999/02/22-rdf-syntax-ns#"
   xmlns:svg="http://www.w3.org/2000/svg"
   xmlns="http://www.w3.org/2000/svg"
   xmlns:sodipodi="http://sodipodi.sourceforge.net/DTD/sodipodi-0.dtd"
   xmlns:inkscape="http://www.inkscape.org/namespaces/inkscape"
   width="16"
   height="16"
   viewBox="0 0 16 16"
   id="svg2"
   version="1.1"
   inkscape:version="0.91 r13725"
   sodipodi:docname="text-x-vcard0b.svg">
  <metadata
     id="metadata14">
    <rdf:RDF>
      <cc:Work
         rdf:about="">
        <dc:format>image/svg+xml</dc:format>
        <dc:type
           rdf:resource="http://purl.org/dc/dcmitype/StillImage" />
        <dc:title></dc:title>
      </cc:Work>
    </rdf:RDF>
  </metadata>
  <defs
     id="defs12" />
  <sodipodi:namedview
     pagecolor="#ffffff"
     bordercolor="#666666"
     borderopacity="1"
     objecttolerance="10"
     gridtolerance="10"
     guidetolerance="10"
     inkscape:pageopacity="0"
     inkscape:pageshadow="2"
     inkscape:window-width="1366"
     inkscape:window-height="704"
     id="namedview10"
     showgrid="false"
     inkscape:zoom="1"
     inkscape:cx="2.5315539"
     inkscape:cy="7.875892"
     inkscape:window-x="0"
     inkscape:window-y="27"
     inkscape:window-maximized="1"
     inkscape:current-layer="svg2">
    <inkscape:grid
       type="xygrid"
       id="grid2993" />
  </sodipodi:namedview>
  <path
     style="fill:#dcdcdc;fill-opacity:1"
     d="M 2.667969,-4.46e-4 C 2.324219,-4.46e-4 2,0.337812 2,0.6964467 L 2,15.303108 C 2,15.641365 2.34375,16 2.667969,16 l 10.664062,0 C 13.65625,16 14,15.641365 14,15.303108 L 14,3.9995538 10,-4.46e-4 z"
     id="path4"
     inkscape:connector-curvature="0"
     sodipodi:nodetypes="ssssssccs" />
  <path
     style="fill:#000000;fill-opacity:0.19599998"
     d="m 10.583223,3.3315848 0.0154,0.01953 0.04005,-0.01953 z m 0.02978,0.667969 3.387,3.664062 0,-3.664062 z"
     id="path6"
     inkscape:connector-curvature="0"
     sodipodi:nodetypes="cccccccc" />
  <path
     style="fill:#ffffff;fill-opacity:0.39200003"
     d="m 10,-4.46e-4 3.996396,3.9999998 -3.383784,0 C 10.313513,3.9995538 10,3.6824368 10,3.3833378 z"
     id="path8"
     inkscape:connector-curvature="0"
     sodipodi:nodetypes="ccssc" />
  <g
     transform="matrix(1.0912094,0,0,1.0898747,-0.1690147,-1.3902146)"
     style="font-size:9.19444752px;line-height:125%;font-family:'Ubuntu Mono';letter-spacing:0;word-spacing:0;fill:#888888"
     id="text10">
    <path
       d="m 11.15186,9.1360846 q 0,0.6464846 -0.206516,1.1852214 -0.206516,0.534248 -0.583632,0.839532 -0.377116,0.305285 -0.8754478,0.305285 -0.3322213,0 -0.5881214,-0.157132 Q 8.6422426,11.14737 8.5300057,10.88698 l -0.071832,0 q -0.4848635,0.579143 -1.234606,0.579143 -0.7946373,0 -1.2525639,-0.475885 -0.4579266,-0.480374 -0.4579266,-1.3109268 0,-0.9472795 0.6015898,-1.5264219 0.6015899,-0.5791425 1.5713167,-0.5791425 0.386095,0 0.8485111,0.076321 0.4669055,0.071832 0.7677004,0.1750896 L 9.1989377,10.020511 q 0,0.624038 0.3412002,0.624038 0.2873265,0 0.4579266,-0.417522 Q 10.168665,9.8050166 10.168665,9.1271056 10.168665,8.4043 9.8678696,7.8520944 9.5670747,7.2953993 9.0193586,7.0035833 8.476132,6.7117674 7.7757737,6.7117674 q -0.9068742,0 -1.5758062,0.3726265 -0.668932,0.3726265 -1.0280901,1.0774743 -0.3546686,0.7003583 -0.3546686,1.620701 0,1.2390958 0.659953,1.9035378 0.6644425,0.659953 1.9214959,0.659953 0.4758845,0 1.0460479,-0.103258 0.5701635,-0.107747 1.1223691,-0.309774 l 0,0.86198 q -0.9607479,0.408542 -2.1325012,0.408542 -1.706001,0 -2.6622595,-0.897895 -0.951769,-0.897895 -0.951769,-2.496149 0,-1.1089006 0.4848635,-2.0112854 0.4893529,-0.9068742 1.3872482,-1.4186745 0.9023847,-0.5162897 2.074138,-0.5162897 0.9876848,0 1.7643642,0.4040528 0.7766791,0.4040529 1.1986901,1.149306 0.422011,0.745253 0.422011,1.7194694 z M 6.5546361,9.6972691 q 0,0.9472799 0.7721899,0.9472799 0.4040529,0 0.6150583,-0.282837 0.2110054,-0.287327 0.2559002,-0.929322 l 0.058363,-0.9921742 q -0.2289633,-0.049384 -0.5162897,-0.049384 -0.5611846,0 -0.8754479,0.3501792 Q 6.554636,9.0911901 6.554636,9.6972694 Z"
       style="font-weight:bold;font-family:'Open Sans'"
       id="path5750"
       inkscape:connector-curvature="0" />
  </g>
</svg>

<svg xmlns="http://www.w3.org/2000/svg" viewBox="0 0 16 16">
 <path d="m 2.668 0 c -0.344 0 -0.668 0.338 -0.668 0.697 l 0 14.607 c 0 0.338 0.344 0.697 0.668 0.697 l 10.664 0 c 0.324 0 0.668 -0.359 0.668 -0.697 l 0 -11.304 -4 -4 z" style="fill:#dcdcdc;fill-opacity:1"/>
 <path d="m 10.583 3.332 0.015 0.02 0.04 -0.02 z m 0.03 0.668 3.387 3.664 0 -3.664 z" style="fill:#000;fill-opacity:0.196"/>
 <path d="m 10 0 3.996 4 -3.384 0 c -0.299 0 -0.613 -0.317 -0.613 -0.616 z" style="fill:#fff;fill-opacity:0.392"/>
 <g transform="matrix(1.0912094,0,0,1.0898747,-0.1690147,-1.3902146)" style="fill:#888">
  <path d="m 11.152 9.136 q 0 0.646 -0.207 1.185 -0.207 0.534 -0.584 0.84 -0.377 0.305 -0.875 0.305 -0.332 0 -0.588 -0.157 q -0.256 -0.162 -0.368 -0.422 l -0.072 0 q -0.485 0.579 -1.235 0.579 -0.795 0 -1.253 -0.476 -0.458 -0.48 -0.458 -1.311 0 -0.947 0.602 -1.526 0.602 -0.579 1.571 -0.579 0.386 0 0.849 0.076 0.467 0.072 0.768 0.175 l -0.103 2.195 q 0 0.624 0.341 0.624 0.287 0 0.458 -0.418 q 0.171 -0.422 0.171 -1.1 0 -0.723 -0.301 -1.275 -0.301 -0.557 -0.849 -0.849 -0.543 -0.292 -1.244 -0.292 q -0.907 0 -1.576 0.373 -0.669 0.373 -1.028 1.077 -0.355 0.7 -0.355 1.621 0 1.239 0.66 1.904 0.664 0.66 1.921 0.66 0.476 0 1.046 -0.103 0.57 -0.108 1.122 -0.31 l 0 0.862 q -0.961 0.409 -2.133 0.409 -1.706 0 -2.662 -0.898 -0.952 -0.898 -0.952 -2.496 0 -1.109 0.485 -2.01 0.489 -0.907 1.387 -1.419 0.902 -0.516 2.074 -0.516 0.988 0 1.764 0.404 0.777 0.404 1.199 1.149 0.422 0.745 0.422 1.719 z m -4.597 0.561 q 0 0.947 0.772 0.947 0.404 0 0.615 -0.283 0.211 -0.287 0.256 -0.929 l 0.058 -0.992 q -0.229 -0.049 -0.516 -0.049 -0.561 0 -0.875 0.35 q -0.31 0.35 -0.31 0.956"/>
 </g>
</svg>
